<?xml version="1.0" encoding="UTF-8"?>
<map version="1.10" tiledversion="1.12.2" orientation="orthogonal" renderorder="right-down" width="4" height="3" tilewidth="16" tileheight="16" infinite="0" nextlayerid="2" nextobjectid="1">
 <editorsettings>
  <export target="bald_sprite.csv" format="csv"/>
 </editorsettings>
 <tileset firstgid="1" source="player_sprite.tsx"/>
 <layer id="1" name="Tile Layer 1" width="4" height="3">
  <data encoding="csv">
429,430,431,432,
456,457,458,459,
483,484,485,486
</data>
 </layer>
</map>
